workspaces/client/public/images/svg/faq-bg.svg

<svg width="625" height="370" viewBox="0 0 625 370" fill="none" xmlns="http://www.w3.org/2000/svg">
<path fill-rule="evenodd" clip-rule="evenodd" d="M62.4453 0.215639H0.218595V61.6008H55.9986L62.4453 55.2413V0.215639ZM69.064 61.6008L62.7004 55.3233V0.215639H124.927V61.6008H69.064ZM62.7004 68.0364L68.9692 61.8524H124.927V123.238H62.7004V68.0364ZM56.0934 61.8524L62.4453 68.1184V123.238H0.218595V61.8524H56.0934ZM0 0V61.6368V61.8164V123.273V123.453V184.91V185.09V246.547V246.727V308.184V308.363V370H62.4818H62.6639H124.963H125.146H187.445H187.627H249.927H250.109H312.409H312.591H374.891H375.073H437.372H437.555H499.854H500.036H562.336H562.518H625L625 308.363V246.727V246.547V184.91V123.453V61.8164V61.6368V0H562.518H562.336H500.036H499.854H437.555H437.372H375.073H374.891H312.591H312.409H250.109H249.927H187.627H187.445H125.146H124.963H62.6639H62.4818H0ZM125.182 0.215639H187.409V61.6008H125.182V0.215639ZM249.891 0.215639H187.664V61.6008H249.891V0.215639ZM250.146 0.215639H312.372V61.6008H250.146V0.215639ZM374.854 0.215639H312.627V61.6008H374.854V0.215639ZM375.109 0.215639H437.336V61.6008H375.109V0.215639ZM499.818 0.215639H437.591V61.6008H499.818V0.215639ZM500.073 0.215639H562.299V61.6008H500.073V0.215639ZM624.781 0.215639H562.555V61.6008H624.781V0.215639ZM125.182 61.8524H187.409V123.238H125.182V61.8524ZM249.891 61.8524H187.664V123.238H243.631L249.891 117.063V61.8524ZM256.305 123.238L250.146 117.162V61.8524H312.372V123.238H256.305ZM250.146 129.858L256.581 123.51L256.56 123.489H312.372V184.874H250.146V129.858ZM243.377 123.489L243.355 123.51L249.891 129.957V184.874H187.664V123.489H243.377ZM374.854 61.8524H312.627V123.238H374.854V61.8524ZM375.109 61.8524H437.336V123.238H375.109V61.8524ZM499.818 61.8524H437.591V123.238H499.818V61.8524ZM500.073 61.8524H562.299V106.207L562.194 106.311L545.036 123.238H500.073V61.8524ZM544.781 123.489H500.073V178.827L500.282 178.621L506.621 184.874H562.3V140.813L562.194 140.709L544.928 123.677L544.759 123.51L544.781 123.489ZM562.3 140.48L545.097 123.51L545.118 123.489H555.771L555.75 123.51L562.3 129.971V140.48ZM562.554 140.686V184.874H624.781V123.489H579.944L579.966 123.51L579.797 123.677L562.554 140.686ZM579.607 123.489L579.628 123.51L562.554 140.353V129.844L568.976 123.51L568.954 123.489H579.607ZM579.69 123.238H624.781V61.8524H562.555V106.334L579.69 123.238ZM562.555 106.667L579.352 123.238H568.699L562.555 117.176V106.667ZM562.299 106.54L545.373 123.238H556.026L562.299 117.049V106.54ZM500.073 191.461L500.282 191.667L506.895 185.144L506.876 185.126H562.299V246.511H500.073V191.461ZM493.687 185.126L493.669 185.144L499.818 191.21V246.511H437.591V185.126H493.687ZM499.818 179.078L493.942 184.874H437.591V123.489H499.818V179.078ZM0.218595 123.489H62.4453V184.874H0.218595V123.489ZM124.927 123.489H62.7004V184.874H124.927V123.489ZM125.182 123.489H187.409V184.874H125.182V123.489ZM374.854 123.489H312.628V184.874H374.854V123.489ZM375.109 123.489H437.336V184.874H375.109V123.489ZM0.218595 185.126H62.4453V246.511H0.218595V185.126ZM124.927 185.126H62.7004V246.511H107.734L107.653 246.431L107.821 246.264L124.927 229.39V185.126ZM124.927 229.723L107.99 246.431L108.071 246.511H118.724L118.643 246.431L124.927 240.232V229.723ZM125.182 239.98V229.472L125.256 229.399L142.521 246.431L142.44 246.511H131.788L131.869 246.431L125.256 239.908L125.182 239.98ZM125.182 252.882L125.256 252.954L131.533 246.762H142.185L125.256 263.463L125.182 263.39V252.882ZM118.979 246.762L124.927 252.63V263.139L108.326 246.762H118.979ZM107.989 246.762H62.7004V308.148H124.927V263.472L107.989 246.762ZM125.182 263.723V308.148H187.409V246.762H142.523L125.425 263.63L125.256 263.796L125.182 263.723ZM142.778 246.511H187.409V185.126H125.182V229.139L125.256 229.066L125.425 229.232L142.69 246.264L142.859 246.431L142.778 246.511ZM249.891 185.126H187.664V246.511H249.891V185.126ZM250.146 185.126H312.372V246.511H250.146V185.126ZM374.854 185.126H312.627V246.511H374.854V185.126ZM375.109 185.126H437.336V246.511H375.109V185.126ZM624.781 185.126H562.555V246.511H624.781V185.126ZM0.218595 246.762H62.4453V308.148H0.218595V246.762ZM249.891 246.762H187.664V308.148H249.891V246.762ZM250.146 246.762H312.372V308.148H250.146V246.762ZM374.854 246.762H312.627V308.148H374.854V246.762ZM375.109 246.762H437.336V308.148H375.109V246.762ZM499.818 246.762H437.591V308.148H499.818V246.762ZM500.073 246.762H562.299V308.148H500.073V246.762ZM624.781 246.762H562.555V308.148H624.781V246.762ZM0.218595 308.399H62.4453V369.784H0.218595V308.399ZM124.927 308.399H62.7004V369.784H124.927V308.399ZM125.182 308.399H187.409V369.784H125.182V308.399ZM249.891 308.399H187.664V369.784H249.891V308.399ZM250.146 308.399H312.372V369.784H250.146V308.399ZM374.854 308.399H312.627V369.784H374.854V308.399ZM375.109 308.399H437.336V369.784H375.109V308.399ZM499.818 308.399H437.591V369.784H499.818V308.399ZM500.073 308.399H562.299V369.784H500.073V308.399ZM624.781 308.399H562.554V369.784H624.781V308.399Z" fill="url(#paint0_radial_91_133)" fill-opacity="0.6"/>
<defs>
<radialGradient id="paint0_radial_91_133" cx="0" cy="0" r="1" gradientUnits="userSpaceOnUse" gradientTransform="translate(312.5 -207.671) rotate(90) scale(531.053 897.048)">
<stop stop-color="white"/>
<stop offset="1" stop-color="white" stop-opacity="0"/>
</radialGradient>
</defs>
</svg>

<svg xmlns="http://www.w3.org/2000/svg" width="625" height="370" fill="none"><path fill="url(#a)" fill-opacity=".6" fill-rule="evenodd" d="M62.445.216H.22V61.6h55.78l6.446-6.36zM69.064 61.6 62.7 55.323V.216h62.227V61.6zM62.7 68.036l6.27-6.184h55.957v61.386H62.7zm-6.607-6.184 6.352 6.266v55.12H.22V61.852zM0 0v370h625V0H0m125.182.216h62.227V61.6h-62.227zm124.709 0h-62.227V61.6h62.227zm.255 0h62.226V61.6h-62.226zm124.708 0h-62.227V61.6h62.227zm.255 0h62.227V61.6h-62.227zm124.709 0h-62.227V61.6h62.227zm.255 0h62.226V61.6h-62.226zm124.708 0h-62.226V61.6h62.226zM125.182 61.852h62.227v61.386h-62.227zm124.709 0h-62.227v61.386h55.967l6.26-6.175zm6.414 61.386-6.159-6.076v-55.31h62.226v61.386zm-6.159 6.62 6.435-6.348-.021-.021h55.812v61.385h-62.226zm-6.769-6.369-.022.021 6.536 6.447v54.917h-62.227v-61.385zm131.477-61.637h-62.227v61.386h62.227zm.255 0h62.227v61.386h-62.227zm124.709 0h-62.227v61.386h62.227zm.255 0h62.226v44.355l-.105.104-17.158 16.927h-44.963zm44.708 61.637h-44.708v55.338l.209-.206 6.339 6.253H562.3v-44.061l-.106-.104-17.266-17.032-.169-.167zM562.3 140.48l-17.203-16.97.021-.021h10.653l-.021.021 6.55 6.461zm.254.206v44.188h62.227v-61.385h-44.837l.022.021-.169.167zm17.053-17.197.021.021-17.074 16.843v-10.509l6.422-6.334-.022-.021zm.083-.251h45.091V61.852h-62.226v44.482zm-17.135-16.571 16.797 16.571h-10.653l-6.144-6.062zm-.256-.127-16.926 16.698h10.653l6.273-6.189zm-62.226 84.921.209.206 6.613-6.523-.019-.018h55.423v61.385h-62.226zm-6.386-6.335-.018.018 6.149 6.066v55.301h-62.227v-61.385zm6.131-6.048-5.876 5.796h-56.351v-61.385h62.227zM.218 123.489h62.227v61.385H.22zm124.709 0H62.7v61.385h62.227zm.255 0h62.227v61.385h-62.227zm249.672 0h-62.226v61.385h62.226zm.255 0h62.227v61.385h-62.227zM.219 185.126h62.226v61.385H.22zm124.708 0H62.7v61.385h45.034l-.081-.08.168-.167 17.106-16.874zm0 44.597-16.937 16.708.081.08h10.653l-.081-.08 6.284-6.199zm.255 10.257v-10.508l.074-.073 17.265 17.032-.081.08h-10.652l.081-.08-6.613-6.523zm0 12.902.074.072 6.277-6.192h10.652l-16.929 16.701-.074-.073zm-6.203-6.12 5.948 5.868v10.509l-16.601-16.377zm-10.99 0H62.7v61.386h62.227v-44.676zm17.193 16.961v44.425h62.227v-61.386h-44.886l-17.098 16.868-.169.166zm17.596-17.212h44.631v-61.385h-62.227v44.013l.074-.073.169.166 17.265 17.032.169.167zm107.113-61.385h-62.227v61.385h62.227zm.255 0h62.226v61.385h-62.226zm124.708 0h-62.227v61.385h62.227zm.255 0h62.227v61.385h-62.227zm249.672 0h-62.226v61.385h62.226zM.219 246.762h62.226v61.386H.22zm249.672 0h-62.227v61.386h62.227zm.255 0h62.226v61.386h-62.226zm124.708 0h-62.227v61.386h62.227zm.255 0h62.227v61.386h-62.227zm124.709 0h-62.227v61.386h62.227zm.255 0h62.226v61.386h-62.226zm124.708 0h-62.226v61.386h62.226zM.219 308.399h62.226v61.385H.22zm124.708 0H62.7v61.385h62.227zm.255 0h62.227v61.385h-62.227zm124.709 0h-62.227v61.385h62.227zm.255 0h62.226v61.385h-62.226zm124.708 0h-62.227v61.385h62.227zm.255 0h62.227v61.385h-62.227zm124.709 0h-62.227v61.385h62.227zm.255 0h62.226v61.385h-62.226zm124.708 0h-62.227v61.385h62.227z" clip-rule="evenodd"/><defs><radialGradient id="a" cx="0" cy="0" r="1" gradientTransform="matrix(0 531.053 -897.048 0 312.5 -207.671)" gradientUnits="userSpaceOnUse"><stop stop-color="#fff"/><stop offset="1" stop-color="#fff" stop-opacity="0"/></radialGradient></defs></svg>
